public/assets/img/about-us/Union.svg

<svg width="109" height="100" viewBox="0 0 109 100" fill="none" xmlns="http://www.w3.org/2000/svg">
<path d="M34.8821 52.206L35.0991 51.7625L34.7776 51.3878C34.3538 50.894 33.9894 50.3412 33.6979 49.7375L12.9795 6.83337C12.389 5.61071 11.1519 4.83326 9.79457 4.83326H0.75V0.75H9.79457C12.7137 0.75 15.3763 2.422 16.6477 5.05487L37.3662 47.959C37.9566 49.1817 39.1937 49.9591 40.551 49.9591H77.7579C79.0151 49.9591 80.1775 49.2911 80.8117 48.2052L103.79 8.86255L107.308 10.9233L84.3288 50.2676C82.9632 52.6058 80.4618 54.0424 77.7579 54.0424H40.551C40.0893 54.0424 39.6341 54.0006 39.19 53.9198L38.6317 53.8183L38.3822 54.328L32.7506 65.8334C31.5996 68.1848 33.308 70.9335 35.9272 70.9335H96.7192V75.0168H35.9272C30.2959 75.0168 26.6113 69.103 29.0918 64.0353L34.8821 52.206ZM47.1769 90.3195C47.1769 95.2527 43.1839 99.25 38.2606 99.25C33.3372 99.25 29.3442 95.2527 29.3442 90.3195C29.3442 85.3863 33.3372 81.389 38.2606 81.389C43.1839 81.389 47.1769 85.3863 47.1769 90.3195ZM38.2606 95.1667C40.9354 95.1667 43.1018 92.9955 43.1018 90.3195C43.1018 87.6435 40.9354 85.4723 38.2606 85.4723C35.5858 85.4723 33.4193 87.6435 33.4193 90.3195C33.4193 92.9955 35.5858 95.1667 38.2606 95.1667ZM96.3158 90.3195C96.3158 95.2527 92.3228 99.25 87.3994 99.25C82.4761 99.25 78.4831 95.2527 78.4831 90.3195C78.4831 85.3863 82.4761 81.389 87.3994 81.389C92.3228 81.389 96.3158 85.3863 96.3158 90.3195ZM87.3994 95.1667C90.0742 95.1667 92.2407 92.9955 92.2407 90.3195C92.2407 87.6435 90.0742 85.4723 87.3994 85.4723C84.7247 85.4723 82.5582 87.6435 82.5582 90.3195C82.5582 92.9955 84.7247 95.1667 87.3994 95.1667Z" fill="#F7941E" stroke="#1F1F1F" stroke-width="1.5"/>
</svg>

<svg xmlns="http://www.w3.org/2000/svg" width="109" height="100" fill="none"><path fill="#F7941E" stroke="#1F1F1F" stroke-width="1.5" d="m34.882 52.206.217-.444-.321-.374a7.6 7.6 0 0 1-1.08-1.65L12.98 6.832a3.54 3.54 0 0 0-3.185-2H.75V.75h9.045a7.61 7.61 0 0 1 6.853 4.305l20.718 42.904c.59 1.223 1.828 2 3.185 2h37.207c1.257 0 2.42-.668 3.054-1.754L103.79 8.863l3.518 2.06-22.98 39.345a7.61 7.61 0 0 1-6.57 3.774H40.55q-.694 0-1.361-.122l-.558-.102-.25.51-5.631 11.505c-1.151 2.352.557 5.1 3.176 5.1H96.72v4.084H35.927c-5.631 0-9.316-5.914-6.835-10.982zM47.177 90.32c0 4.933-3.993 8.93-8.916 8.93-4.924 0-8.917-3.997-8.917-8.93 0-4.934 3.993-8.931 8.917-8.931s8.916 3.997 8.916 8.93Zm-8.916 4.847a4.844 4.844 0 0 0 4.84-4.847 4.844 4.844 0 0 0-4.84-4.848 4.844 4.844 0 0 0-4.842 4.848 4.844 4.844 0 0 0 4.842 4.847Zm58.055-4.847c0 4.933-3.993 8.93-8.917 8.93s-8.916-3.997-8.916-8.93c0-4.934 3.993-8.931 8.916-8.931 4.924 0 8.917 3.997 8.917 8.93Zm-8.917 4.847a4.844 4.844 0 0 0 4.842-4.847 4.844 4.844 0 0 0-4.842-4.848 4.844 4.844 0 0 0-4.84 4.848 4.844 4.844 0 0 0 4.84 4.847Z"/></svg>
